!!!COM: Johann  Friedrich Reichardt
!!!OTL: Sleep Baby Sleep
!!!OTL@@DE: Schlaf, Kindlein, Schlaf
!!!ARE: Deutschland
**kern
*clefG2
*k[b-]
*M4/4
*MM 50
=1
{2a
4g
4g
=2
(2f
2c)}
=3
{4a
4a
8g
8g
4g
=4
2f
2c}
=5
{4a
4a
4a
4cc
=6
4cc
4b-
2g}
=7
{4a
4a
4a
4cc
=8
4cc
4b-
2g}
=9
{4a
4a
8b-
8b-
4b-
=10
1cc}
=11
{4a
4a
4g
4g
=12
1f}
==
*-